X: 161
T: Siege of Limerick
M:6/4
L:1/8
Q:160
S:Playford
O:Manuscript
A:English
K:F
d3 e f2 d2 a4|e3 f g2 ^c2 f4|=B3 d ^c2 e2 de f2|A2 d4 ^c2 d4:|
|: c3 d cB A2 AB c2| d3 e de f2 ef g2|a2 f4 c2 d2 cB| AB c4 e2 f4|a3 b a2 d4| g3 a g2 e2 ^c4|f3 g f2 d2 =B2 e2|^c2 A4 c2 d4|a3 ba2 f2 d4|g3 a g2 e2 ^c4| f3 g f2 d2 =B2 e2|^c2 A4 c2 d4:|

